images/decision/3.svg

<svg width="101" height="78" viewBox="0 0 101 78" fill="none" xmlns="http://www.w3.org/2000/svg">
<path d="M11.9101 23.9362C10.9852 14.1563 39.565 6.72813 52.7057 10.3553C72.0149 16.3387 95.9674 41.1978 90.1857 62.551C88.2011 69.881 79.4457 76.2428 67.5168 73.0468C56.1061 69.9893 49.6027 52.4807 40.87 46.027C29.4351 37.5764 13.3358 39.0105 11.9101 23.9362Z" fill="#F7D880"/>
<mask id="path-2-outside-1" maskUnits="userSpaceOnUse" x="6" y="5" width="54" height="50" fill="black">
<rect fill="white" x="6" y="5" width="54" height="50"/>
<path d="M54.6667 11.2H50.3333V9.46667C50.3333 8.54725 49.9681 7.66549 49.318 7.01536C48.6678 6.36524 47.7861 6 46.8667 6C45.9473 6 45.0655 6.36524 44.4154 7.01536C43.7652 7.66549 43.4 8.54725 43.4 9.46667V11.2H36.4667V9.46667C36.4667 8.54725 36.1014 7.66549 35.4513 7.01536C34.8012 6.36524 33.9194 6 33 6C32.0806 6 31.1988 6.36524 30.5487 7.01536C29.8986 7.66549 29.5333 8.54725 29.5333 9.46667V11.2H22.6V9.46667C22.6 8.54725 22.2348 7.66549 21.5846 7.01536C20.9345 6.36524 20.0528 6 19.1333 6C18.2139 6 17.3322 6.36524 16.682 7.01536C16.0319 7.66549 15.6667 8.54725 15.6667 9.46667V11.2H11.3333C10.1841 11.2 9.08186 11.6565 8.2692 12.4692C7.45655 13.2819 7 14.3841 7 15.5333V50.2C7 51.3493 7.45655 52.4515 8.2692 53.2641C9.08186 54.0768 10.1841 54.5333 11.3333 54.5333H35.6C35.8299 54.5333 36.0503 54.442 36.2128 54.2795C36.3754 54.117 36.4667 53.8965 36.4667 53.6667C36.4667 53.4368 36.3754 53.2164 36.2128 53.0538C36.0503 52.8913 35.8299 52.8 35.6 52.8H11.3333C10.6444 52.7979 9.98428 52.5234 9.49713 52.0362C9.00998 51.5491 8.73539 50.8889 8.73333 50.2V23.3333H57.2667V38.0667C57.2667 38.2965 57.358 38.517 57.5205 38.6795C57.683 38.842 57.9035 38.9333 58.1333 38.9333C58.3632 38.9333 58.5836 38.842 58.7462 38.6795C58.9087 38.517 59 38.2965 59 38.0667V15.5333C59 14.3841 58.5435 13.2819 57.7308 12.4692C56.9181 11.6565 55.8159 11.2 54.6667 11.2ZM45.1333 9.46667C45.1333 9.00696 45.316 8.56608 45.641 8.24101C45.9661 7.91595 46.407 7.73333 46.8667 7.73333C47.3264 7.73333 47.7673 7.91595 48.0923 8.24101C48.4174 8.56608 48.6 9.00696 48.6 9.46667V14.6667C48.6 15.1264 48.4174 15.5673 48.0923 15.8923C47.7673 16.2174 47.3264 16.4 46.8667 16.4C46.407 16.4 45.9661 16.2174 45.641 15.8923C45.316 15.5673 45.1333 15.1264 45.1333 14.6667V9.46667ZM31.2667 9.46667C31.2667 9.00696 31.4493 8.56608 31.7743 8.24101C32.0994 7.91595 32.5403 7.73333 33 7.73333C33.4597 7.73333 33.9006 7.91595 34.2257 8.24101C34.5507 8.56608 34.7333 9.00696 34.7333 9.46667V14.6667C34.7333 15.1264 34.5507 15.5673 34.2257 15.8923C33.9006 16.2174 33.4597 16.4 33 16.4C32.5403 16.4 32.0994 16.2174 31.7743 15.8923C31.4493 15.5673 31.2667 15.1264 31.2667 14.6667V9.46667ZM17.4 9.46667C17.4 9.00696 17.5826 8.56608 17.9077 8.24101C18.2327 7.91595 18.6736 7.73333 19.1333 7.73333C19.593 7.73333 20.0339 7.91595 20.359 8.24101C20.684 8.56608 20.8667 9.00696 20.8667 9.46667V14.6667C20.8667 15.1264 20.684 15.5673 20.359 15.8923C20.0339 16.2174 19.593 16.4 19.1333 16.4C18.6736 16.4 18.2327 16.2174 17.9077 15.8923C17.5826 15.5673 17.4 15.1264 17.4 14.6667V9.46667ZM57.2667 21.6H8.73333V15.5333C8.73539 14.8444 9.00998 14.1843 9.49713 13.6971C9.98428 13.21 10.6444 12.9354 11.3333 12.9333H15.6667V14.6667C15.6667 15.5861 16.0319 16.4678 16.682 17.118C17.3322 17.7681 18.2139 18.1333 19.1333 18.1333C20.0528 18.1333 20.9345 17.7681 21.5846 17.118C22.2348 16.4678 22.6 15.5861 22.6 14.6667V12.9333H29.5333V14.6667C29.5333 15.5861 29.8986 16.4678 30.5487 17.118C31.1988 17.7681 32.0806 18.1333 33 18.1333C33.9194 18.1333 34.8012 17.7681 35.4513 17.118C36.1014 16.4678 36.4667 15.5861 36.4667 14.6667V12.9333H43.4V14.6667C43.4 15.5861 43.7652 16.4678 44.4154 17.118C45.0655 17.7681 45.9473 18.1333 46.8667 18.1333C47.7861 18.1333 48.6678 17.7681 49.318 17.118C49.9681 16.4678 50.3333 15.5861 50.3333 14.6667V12.9333H54.6667C55.3556 12.9354 56.0157 13.21 56.5029 13.6971C56.99 14.1843 57.2646 14.8444 57.2667 15.5333V21.6Z"/>
</mask>
<path d="M54.6667 11.2H50.3333V9.46667C50.3333 8.54725 49.9681 7.66549 49.318 7.01536C48.6678 6.36524 47.7861 6 46.8667 6C45.9473 6 45.0655 6.36524 44.4154 7.01536C43.7652 7.66549 43.4 8.54725 43.4 9.46667V11.2H36.4667V9.46667C36.4667 8.54725 36.1014 7.66549 35.4513 7.01536C34.8012 6.36524 33.9194 6 33 6C32.0806 6 31.1988 6.36524 30.5487 7.01536C29.8986 7.66549 29.5333 8.54725 29.5333 9.46667V11.2H22.6V9.46667C22.6 8.54725 22.2348 7.66549 21.5846 7.01536C20.9345 6.36524 20.0528 6 19.1333 6C18.2139 6 17.3322 6.36524 16.682 7.01536C16.0319 7.66549 15.6667 8.54725 15.6667 9.46667V11.2H11.3333C10.1841 11.2 9.08186 11.6565 8.2692 12.4692C7.45655 13.2819 7 14.3841 7 15.5333V50.2C7 51.3493 7.45655 52.4515 8.2692 53.2641C9.08186 54.0768 10.1841 54.5333 11.3333 54.5333H35.6C35.8299 54.5333 36.0503 54.442 36.2128 54.2795C36.3754 54.117 36.4667 53.8965 36.4667 53.6667C36.4667 53.4368 36.3754 53.2164 36.2128 53.0538C36.0503 52.8913 35.8299 52.8 35.6 52.8H11.3333C10.6444 52.7979 9.98428 52.5234 9.49713 52.0362C9.00998 51.5491 8.73539 50.8889 8.73333 50.2V23.3333H57.2667V38.0667C57.2667 38.2965 57.358 38.517 57.5205 38.6795C57.683 38.842 57.9035 38.9333 58.1333 38.9333C58.3632 38.9333 58.5836 38.842 58.7462 38.6795C58.9087 38.517 59 38.2965 59 38.0667V15.5333C59 14.3841 58.5435 13.2819 57.7308 12.4692C56.9181 11.6565 55.8159 11.2 54.6667 11.2ZM45.1333 9.46667C45.1333 9.00696 45.316 8.56608 45.641 8.24101C45.9661 7.91595 46.407 7.73333 46.8667 7.73333C47.3264 7.73333 47.7673 7.91595 48.0923 8.24101C48.4174 8.56608 48.6 9.00696 48.6 9.46667V14.6667C48.6 15.1264 48.4174 15.5673 48.0923 15.8923C47.7673 16.2174 47.3264 16.4 46.8667 16.4C46.407 16.4 45.9661 16.2174 45.641 15.8923C45.316 15.5673 45.1333 15.1264 45.1333 14.6667V9.46667ZM31.2667 9.46667C31.2667 9.00696 31.4493 8.56608 31.7743 8.24101C32.0994 7.91595 32.5403 7.73333 33 7.73333C33.4597 7.73333 33.9006 7.91595 34.2257 8.24101C34.5507 8.56608 34.7333 9.00696 34.7333 9.46667V14.6667C34.7333 15.1264 34.5507 15.5673 34.2257 15.8923C33.9006 16.2174 33.4597 16.4 33 16.4C32.5403 16.4 32.0994 16.2174 31.7743 15.8923C31.4493 15.5673 31.2667 15.1264 31.2667 14.6667V9.46667ZM17.4 9.46667C17.4 9.00696 17.5826 8.56608 17.9077 8.24101C18.2327 7.91595 18.6736 7.73333 19.1333 7.73333C19.593 7.73333 20.0339 7.91595 20.359 8.24101C20.684 8.56608 20.8667 9.00696 20.8667 9.46667V14.6667C20.8667 15.1264 20.684 15.5673 20.359 15.8923C20.0339 16.2174 19.593 16.4 19.1333 16.4C18.6736 16.4 18.2327 16.2174 17.9077 15.8923C17.5826 15.5673 17.4 15.1264 17.4 14.6667V9.46667ZM57.2667 21.6H8.73333V15.5333C8.73539 14.8444 9.00998 14.1843 9.49713 13.6971C9.98428 13.21 10.6444 12.9354 11.3333 12.9333H15.6667V14.6667C15.6667 15.5861 16.0319 16.4678 16.682 17.118C17.3322 17.7681 18.2139 18.1333 19.1333 18.1333C20.0528 18.1333 20.9345 17.7681 21.5846 17.118C22.2348 16.4678 22.6 15.5861 22.6 14.6667V12.9333H29.5333V14.6667C29.5333 15.5861 29.8986 16.4678 30.5487 17.118C31.1988 17.7681 32.0806 18.1333 33 18.1333C33.9194 18.1333 34.8012 17.7681 35.4513 17.118C36.1014 16.4678 36.4667 15.5861 36.4667 14.6667V12.9333H43.4V14.6667C43.4 15.5861 43.7652 16.4678 44.4154 17.118C45.0655 17.7681 45.9473 18.1333 46.8667 18.1333C47.7861 18.1333 48.6678 17.7681 49.318 17.118C49.9681 16.4678 50.3333 15.5861 50.3333 14.6667V12.9333H54.6667C55.3556 12.9354 56.0157 13.21 56.5029 13.6971C56.99 14.1843 57.2646 14.8444 57.2667 15.5333V21.6Z" fill="#1C2D5A"/>
<path d="M54.6667 11.2H50.3333V9.46667C50.3333 8.54725 49.9681 7.66549 49.318 7.01536C48.6678 6.36524 47.7861 6 46.8667 6C45.9473 6 45.0655 6.36524 44.4154 7.01536C43.7652 7.66549 43.4 8.54725 43.4 9.46667V11.2H36.4667V9.46667C36.4667 8.54725 36.1014 7.66549 35.4513 7.01536C34.8012 6.36524 33.9194 6 33 6C32.0806 6 31.1988 6.36524 30.5487 7.01536C29.8986 7.66549 29.5333 8.54725 29.5333 9.46667V11.2H22.6V9.46667C22.6 8.54725 22.2348 7.66549 21.5846 7.01536C20.9345 6.36524 20.0528 6 19.1333 6C18.2139 6 17.3322 6.36524 16.682 7.01536C16.0319 7.66549 15.6667 8.54725 15.6667 9.46667V11.2H11.3333C10.1841 11.2 9.08186 11.6565 8.2692 12.4692C7.45655 13.2819 7 14.3841 7 15.5333V50.2C7 51.3493 7.45655 52.4515 8.2692 53.2641C9.08186 54.0768 10.1841 54.5333 11.3333 54.5333H35.6C35.8299 54.5333 36.0503 54.442 36.2128 54.2795C36.3754 54.117 36.4667 53.8965 36.4667 53.6667C36.4667 53.4368 36.3754 53.2164 36.2128 53.0538C36.0503 52.8913 35.8299 52.8 35.6 52.8H11.3333C10.6444 52.7979 9.98428 52.5234 9.49713 52.0362C9.00998 51.5491 8.73539 50.8889 8.73333 50.2V23.3333H57.2667V38.0667C57.2667 38.2965 57.358 38.517 57.5205 38.6795C57.683 38.842 57.9035 38.9333 58.1333 38.9333C58.3632 38.9333 58.5836 38.842 58.7462 38.6795C58.9087 38.517 59 38.2965 59 38.0667V15.5333C59 14.3841 58.5435 13.2819 57.7308 12.4692C56.9181 11.6565 55.8159 11.2 54.6667 11.2ZM45.1333 9.46667C45.1333 9.00696 45.316 8.56608 45.641 8.24101C45.9661 7.91595 46.407 7.73333 46.8667 7.73333C47.3264 7.73333 47.7673 7.91595 48.0923 8.24101C48.4174 8.56608 48.6 9.00696 48.6 9.46667V14.6667C48.6 15.1264 48.4174 15.5673 48.0923 15.8923C47.7673 16.2174 47.3264 16.4 46.8667 16.4C46.407 16.4 45.9661 16.2174 45.641 15.8923C45.316 15.5673 45.1333 15.1264 45.1333 14.6667V9.46667ZM31.2667 9.46667C31.2667 9.00696 31.4493 8.56608 31.7743 8.24101C32.0994 7.91595 32.5403 7.73333 33 7.73333C33.4597 7.73333 33.9006 7.91595 34.2257 8.24101C34.5507 8.56608 34.7333 9.00696 34.7333 9.46667V14.6667C34.7333 15.1264 34.5507 15.5673 34.2257 15.8923C33.9006 16.2174 33.4597 16.4 33 16.4C32.5403 16.4 32.0994 16.2174 31.7743 15.8923C31.4493 15.5673 31.2667 15.1264 31.2667 14.6667V9.46667ZM17.4 9.46667C17.4 9.00696 17.5826 8.56608 17.9077 8.24101C18.2327 7.91595 18.6736 7.73333 19.1333 7.73333C19.593 7.73333 20.0339 7.91595 20.359 8.24101C20.684 8.56608 20.8667 9.00696 20.8667 9.46667V14.6667C20.8667 15.1264 20.684 15.5673 20.359 15.8923C20.0339 16.2174 19.593 16.4 19.1333 16.4C18.6736 16.4 18.2327 16.2174 17.9077 15.8923C17.5826 15.5673 17.4 15.1264 17.4 14.6667V9.46667ZM57.2667 21.6H8.73333V15.5333C8.73539 14.8444 9.00998 14.1843 9.49713 13.6971C9.98428 13.21 10.6444 12.9354 11.3333 12.9333H15.6667V14.6667C15.6667 15.5861 16.0319 16.4678 16.682 17.118C17.3322 17.7681 18.2139 18.1333 19.1333 18.1333C20.0528 18.1333 20.9345 17.7681 21.5846 17.118C22.2348 16.4678 22.6 15.5861 22.6 14.6667V12.9333H29.5333V14.6667C29.5333 15.5861 29.8986 16.4678 30.5487 17.118C31.1988 17.7681 32.0806 18.1333 33 18.1333C33.9194 18.1333 34.8012 17.7681 35.4513 17.118C36.1014 16.4678 36.4667 15.5861 36.4667 14.6667V12.9333H43.4V14.6667C43.4 15.5861 43.7652 16.4678 44.4154 17.118C45.0655 17.7681 45.9473 18.1333 46.8667 18.1333C47.7861 18.1333 48.6678 17.7681 49.318 17.118C49.9681 16.4678 50.3333 15.5861 50.3333 14.6667V12.9333H54.6667C55.3556 12.9354 56.0157 13.21 56.5029 13.6971C56.99 14.1843 57.2646 14.8444 57.2667 15.5333V21.6Z" stroke="#1C2D5A" stroke-width="0.8" mask="url(#path-2-outside-1)"/>
<path d="M31.4681 29.4007C31.4681 28.8879 31.2644 28.3962 30.9018 28.0336C30.5392 27.671 30.0475 27.4674 29.5347 27.4674H26.0681C25.5553 27.4674 25.0635 27.671 24.701 28.0336C24.3384 28.3962 24.1347 28.8879 24.1347 29.4007V32.0007C24.1347 32.5134 24.3384 33.0052 24.701 33.3678C25.0635 33.7303 25.5553 33.934 26.0681 33.934H29.5347C30.0475 33.934 30.5392 33.7303 30.9018 33.3678C31.2644 33.0052 31.4681 32.5134 31.4681 32.0007V29.4007ZM26.2681 31.8007V29.6007H29.3347V31.8007H26.2681Z" fill="#1C2D5A" stroke="#1C2D5A" stroke-width="0.4"/>
<path d="M21.0647 29.4007C21.0647 28.8879 20.861 28.3962 20.4985 28.0336C20.1359 27.671 19.6441 27.4674 19.1314 27.4674H15.6647C15.152 27.4674 14.6602 27.671 14.2977 28.0336C13.9351 28.3962 13.7314 28.8879 13.7314 29.4007V32.0007C13.7314 32.5134 13.9351 33.0052 14.2977 33.3678C14.6602 33.7303 15.152 33.934 15.6647 33.934H19.1314C19.6441 33.934 20.1359 33.7303 20.4985 33.3678C20.861 33.0052 21.0647 32.5134 21.0647 32.0007V29.4007ZM15.8647 31.8007V29.6007H18.9314V31.8007H15.8647Z" fill="#1C2D5A" stroke="#1C2D5A" stroke-width="0.4"/>
<path d="M50.3331 33.934C50.8458 33.934 51.3376 33.7303 51.7001 33.3678C52.0627 33.0052 52.2664 32.5134 52.2664 32.0007V29.4007C52.2664 28.8879 52.0627 28.3962 51.7001 28.0336C51.3376 27.671 50.8458 27.4674 50.3331 27.4674H46.8664C46.3536 27.4674 45.8619 27.671 45.4993 28.0336C45.1367 28.3962 44.9331 28.8879 44.9331 29.4007V32.0007C44.9331 32.5134 45.1367 33.0052 45.4993 33.3678C45.8619 33.7303 46.3536 33.934 46.8664 33.934H50.3331ZM47.0664 29.6007H50.1331V31.8007H47.0664V29.6007Z" fill="#1C2D5A" stroke="#1C2D5A" stroke-width="0.4"/>
<path d="M31.4681 37.199C31.4681 36.6863 31.2644 36.1945 30.9018 35.832C30.5392 35.4694 30.0475 35.2657 29.5347 35.2657H26.0681C25.5553 35.2657 25.0635 35.4694 24.701 35.832C24.3384 36.1945 24.1347 36.6863 24.1347 37.199V39.799C24.1347 40.3118 24.3384 40.8035 24.701 41.1661C25.0635 41.5287 25.5553 41.7324 26.0681 41.7324H29.5347C30.0475 41.7324 30.5392 41.5287 30.9018 41.1661C31.2644 40.8035 31.4681 40.3118 31.4681 39.799V37.199ZM26.2681 39.599V37.399H29.3347V39.599H26.2681Z" fill="#1C2D5A" stroke="#1C2D5A" stroke-width="0.4"/>
<path d="M21.0647 37.199C21.0647 36.6863 20.861 36.1945 20.4985 35.832C20.1359 35.4694 19.6441 35.2657 19.1314 35.2657H15.6647C15.152 35.2657 14.6602 35.4694 14.2977 35.832C13.9351 36.1945 13.7314 36.6863 13.7314 37.199V39.799C13.7314 40.3118 13.9351 40.8035 14.2977 41.1661C14.6602 41.5287 15.152 41.7324 15.6647 41.7324H19.1314C19.6441 41.7324 20.1359 41.5287 20.4985 41.1661C20.861 40.8035 21.0647 40.3118 21.0647 39.799V37.199ZM15.8647 39.599V37.399H18.9314V39.599H15.8647Z" fill="#1C2D5A" stroke="#1C2D5A" stroke-width="0.4"/>
<path d="M29.5347 43.0661H26.0681C25.5553 43.0661 25.0635 43.2698 24.701 43.6324C24.3384 43.9949 24.1347 44.4867 24.1347 44.9994V47.5994C24.1347 48.1122 24.3384 48.604 24.701 48.9665C25.0635 49.3291 25.5553 49.5328 26.0681 49.5328H29.5347C30.0475 49.5328 30.5392 49.3291 30.9018 48.9665C31.2644 48.604 31.4681 48.1122 31.4681 47.5994V44.9994C31.4681 44.4867 31.2644 43.9949 30.9018 43.6324C30.5392 43.2698 30.0475 43.0661 29.5347 43.0661ZM26.2681 47.3994V45.1994H29.3347V47.3994H26.2681Z" fill="#1C2D5A" stroke="#1C2D5A" stroke-width="0.4"/>
<path d="M36.4672 33.934H39.9339C40.4466 33.934 40.9384 33.7303 41.301 33.3678C41.6635 33.0052 41.8672 32.5134 41.8672 32.0007V29.4007C41.8672 28.8879 41.6635 28.3962 41.301 28.0336C40.9384 27.671 40.4466 27.4674 39.9339 27.4674H36.4672C35.9545 27.4674 35.4627 27.671 35.1001 28.0336C34.7376 28.3962 34.5339 28.8879 34.5339 29.4007V32.0007C34.5339 32.5134 34.7376 33.0052 35.1001 33.3678C35.4627 33.7303 35.9545 33.934 36.4672 33.934ZM36.6672 29.6007H39.7339V31.8007H36.6672V29.6007Z" fill="#1C2D5A" stroke="#1C2D5A" stroke-width="0.4"/>
<path d="M34.5339 39.799C34.5339 40.3118 34.7376 40.8035 35.1001 41.1661C35.4627 41.5287 35.9545 41.7324 36.4672 41.7324C36.7501 41.7324 37.0214 41.62 37.2215 41.4199C37.4215 41.2199 37.5339 40.9486 37.5339 40.6657C37.5339 40.3828 37.4215 40.1115 37.2215 39.9115C37.0692 39.7592 36.8757 39.6577 36.6672 39.6179V37.399H39.9339C40.2168 37.399 40.4881 37.2867 40.6881 37.0866C40.8882 36.8866 41.0006 36.6153 41.0006 36.3324C41.0006 36.0495 40.8882 35.7782 40.6881 35.5781C40.4881 35.3781 40.2168 35.2657 39.9339 35.2657H36.4672C35.9545 35.2657 35.4627 35.4694 35.1001 35.832C34.7376 36.1945 34.5339 36.6863 34.5339 37.199V39.799Z" fill="#1C2D5A" stroke="#1C2D5A" stroke-width="0.4"/>
<path d="M19.1314 43.0661H15.6647C15.152 43.0661 14.6602 43.2698 14.2977 43.6324C13.9351 43.9949 13.7314 44.4867 13.7314 44.9994V47.5994C13.7314 48.1122 13.9351 48.604 14.2977 48.9665C14.6602 49.3291 15.152 49.5328 15.6647 49.5328H19.1314C19.6441 49.5328 20.1359 49.3291 20.4985 48.9665C20.861 48.604 21.0647 48.1122 21.0647 47.5994V44.9994C21.0647 44.4867 20.861 43.9949 20.4985 43.6324C20.1359 43.2698 19.6441 43.0661 19.1314 43.0661ZM15.8647 47.3994V45.1994H18.9314V47.3994H15.8647Z" fill="#1C2D5A" stroke="#1C2D5A" stroke-width="0.4"/>
<path d="M47.7347 35.2657H47.7344C45.4666 35.2657 43.2496 35.9382 41.3639 37.1982C39.4782 38.4582 38.0085 40.249 37.1406 42.3443C36.2727 44.4395 36.0457 46.7451 36.4881 48.9694C36.9306 51.1937 38.0226 53.2369 39.6263 54.8405C41.2299 56.4442 43.2731 57.5363 45.4974 57.9787C47.7217 58.4211 50.0273 58.1941 52.1225 57.3262C54.2178 56.4583 56.0087 54.9886 57.2686 53.1029C58.5286 51.2172 59.2011 49.0003 59.2011 46.7324V46.7321C59.1976 43.6921 57.9884 40.7776 55.8388 38.628C53.6892 36.4784 50.7747 35.2692 47.7347 35.2657ZM47.7342 56.0657C45.8883 56.0656 44.0839 55.5183 42.5491 54.4927C41.0143 53.4672 39.818 52.0095 39.1116 50.3041C38.4052 48.5986 38.2203 46.722 38.5804 44.9115C38.9406 43.101 39.8295 41.438 41.1348 40.1327C42.4401 38.8274 44.1031 37.9385 45.9136 37.5784C47.7241 37.2182 49.6007 37.4031 51.3062 38.1095C53.0116 38.8159 54.4693 40.0122 55.4948 41.547C56.5203 43.0818 57.0677 44.8862 57.0678 46.7321C57.0649 49.2066 56.0806 51.579 54.3308 53.3287C52.5811 55.0785 50.2087 56.0628 47.7342 56.0657Z" fill="#1C2D5A" stroke="#1C2D5A" stroke-width="0.4"/>
<path d="M52.6005 42.957L52.6004 42.9569L52.598 42.9594L45.9985 49.5589L43.0763 46.6358L43.0763 46.6358L43.0738 46.6334C42.8726 46.4391 42.6031 46.3316 42.3235 46.334C42.0438 46.3364 41.7763 46.4486 41.5785 46.6464C41.3807 46.8441 41.2685 47.1117 41.2661 47.3913C41.2637 47.671 41.3712 47.9405 41.5655 48.1416L41.5655 48.1417L41.5679 48.1441L45.2443 51.8214L45.2443 51.8214C45.4444 52.0214 45.7156 52.1337 45.9985 52.1337C46.2813 52.1337 46.5526 52.0214 46.7526 51.8214L46.7526 51.8214L54.1063 44.4677L54.1063 44.4677L54.1087 44.4652C54.303 44.2641 54.4106 43.9946 54.4081 43.7149C54.4057 43.4353 54.2935 43.1677 54.0957 42.97C53.898 42.7722 53.6304 42.66 53.3508 42.6576C53.0711 42.6552 52.8016 42.7627 52.6005 42.957Z" fill="#1C2D5A" stroke="#1C2D5A" stroke-width="0.4"/>
</svg>

<svg width="101" height="78" fill="none" xmlns="http://www.w3.org/2000/svg"><path d="M11.91 23.936c-.925-9.78 27.655-17.208 40.796-13.58 19.309 5.983 43.261 30.842 37.48 52.195-1.985 7.33-10.74 13.692-22.67 10.496-11.41-3.058-17.913-20.566-26.646-27.02-11.435-8.45-27.534-7.017-28.96-22.09Z" fill="#F7D880"/><mask id="a" maskUnits="userSpaceOnUse" x="6" y="5" width="54" height="50" fill="#000"><path fill="#fff" d="M6 5h54v50H6z"/><path d="M54.667 11.2h-4.334V9.467a3.467 3.467 0 1 0-6.933 0V11.2h-6.933V9.467a3.467 3.467 0 0 0-6.934 0V11.2H22.6V9.467a3.466 3.466 0 1 0-6.933 0V11.2h-4.334A4.333 4.333 0 0 0 7 15.533V50.2a4.333 4.333 0 0 0 4.333 4.333H35.6a.867.867 0 1 0 0-1.733H11.333a2.608 2.608 0 0 1-2.6-2.6V23.333h48.534v14.734a.867.867 0 0 0 1.733 0V15.533a4.333 4.333 0 0 0-4.333-4.333Zm-9.534-1.733a1.734 1.734 0 0 1 3.467 0v5.2a1.733 1.733 0 1 1-3.467 0v-5.2Zm-13.866 0a1.734 1.734 0 1 1 3.466 0v5.2a1.733 1.733 0 1 1-3.466 0v-5.2Zm-13.867 0a1.733 1.733 0 1 1 3.467 0v5.2a1.733 1.733 0 0 1-3.467 0v-5.2ZM57.267 21.6H8.733v-6.067a2.608 2.608 0 0 1 2.6-2.6h4.334v1.734a3.467 3.467 0 0 0 6.933 0v-1.734h6.933v1.734a3.467 3.467 0 0 0 6.934 0v-1.734H43.4v1.734a3.467 3.467 0 1 0 6.933 0v-1.734h4.334a2.608 2.608 0 0 1 2.6 2.6V21.6Z"/></mask><path d="M54.667 11.2h-4.334V9.467a3.467 3.467 0 1 0-6.933 0V11.2h-6.933V9.467a3.467 3.467 0 0 0-6.934 0V11.2H22.6V9.467a3.466 3.466 0 1 0-6.933 0V11.2h-4.334A4.333 4.333 0 0 0 7 15.533V50.2a4.333 4.333 0 0 0 4.333 4.333H35.6a.867.867 0 1 0 0-1.733H11.333a2.608 2.608 0 0 1-2.6-2.6V23.333h48.534v14.734a.867.867 0 0 0 1.733 0V15.533a4.333 4.333 0 0 0-4.333-4.333Zm-9.534-1.733a1.734 1.734 0 0 1 3.467 0v5.2a1.733 1.733 0 1 1-3.467 0v-5.2Zm-13.866 0a1.734 1.734 0 1 1 3.466 0v5.2a1.733 1.733 0 1 1-3.466 0v-5.2Zm-13.867 0a1.733 1.733 0 1 1 3.467 0v5.2a1.733 1.733 0 0 1-3.467 0v-5.2ZM57.267 21.6H8.733v-6.067a2.608 2.608 0 0 1 2.6-2.6h4.334v1.734a3.467 3.467 0 0 0 6.933 0v-1.734h6.933v1.734a3.467 3.467 0 0 0 6.934 0v-1.734H43.4v1.734a3.467 3.467 0 1 0 6.933 0v-1.734h4.334a2.608 2.608 0 0 1 2.6 2.6V21.6Z" fill="#1C2D5A"/><path d="M54.667 11.2h-4.334V9.467a3.467 3.467 0 1 0-6.933 0V11.2h-6.933V9.467a3.467 3.467 0 0 0-6.934 0V11.2H22.6V9.467a3.466 3.466 0 1 0-6.933 0V11.2h-4.334A4.333 4.333 0 0 0 7 15.533V50.2a4.333 4.333 0 0 0 4.333 4.333H35.6a.867.867 0 1 0 0-1.733H11.333a2.608 2.608 0 0 1-2.6-2.6V23.333h48.534v14.734a.867.867 0 0 0 1.733 0V15.533a4.333 4.333 0 0 0-4.333-4.333Zm-9.534-1.733a1.734 1.734 0 0 1 3.467 0v5.2a1.733 1.733 0 1 1-3.467 0v-5.2Zm-13.866 0a1.734 1.734 0 1 1 3.466 0v5.2a1.733 1.733 0 1 1-3.466 0v-5.2Zm-13.867 0a1.733 1.733 0 1 1 3.467 0v5.2a1.733 1.733 0 0 1-3.467 0v-5.2ZM57.267 21.6H8.733v-6.067a2.608 2.608 0 0 1 2.6-2.6h4.334v1.734a3.467 3.467 0 0 0 6.933 0v-1.734h6.933v1.734a3.467 3.467 0 0 0 6.934 0v-1.734H43.4v1.734a3.467 3.467 0 1 0 6.933 0v-1.734h4.334a2.608 2.608 0 0 1 2.6 2.6V21.6Z" stroke="#1C2D5A" stroke-width=".8" mask="url(#a)"/><path d="M31.468 29.4a1.933 1.933 0 0 0-1.933-1.933h-3.467a1.933 1.933 0 0 0-1.933 1.934V32a1.933 1.933 0 0 0 1.933 1.933h3.467a1.934 1.934 0 0 0 1.933-1.933v-2.6Zm-5.2 2.4v-2.2h3.067v2.2h-3.067ZM21.065 29.4a1.934 1.934 0 0 0-1.934-1.933h-3.466a1.933 1.933 0 0 0-1.934 1.934V32a1.933 1.933 0 0 0 1.934 1.933h3.466a1.934 1.934 0 0 0 1.934-1.933v-2.6Zm-5.2 2.4v-2.2h3.066v2.2h-3.066ZM50.333 33.934a1.933 1.933 0 0 0 1.933-1.933v-2.6a1.933 1.933 0 0 0-1.933-1.934h-3.467a1.933 1.933 0 0 0-1.933 1.934V32a1.933 1.933 0 0 0 1.933 1.933h3.467Zm-3.267-4.333h3.067v2.2h-3.067v-2.2ZM31.468 37.199a1.933 1.933 0 0 0-1.933-1.933h-3.467a1.933 1.933 0 0 0-1.933 1.933v2.6a1.933 1.933 0 0 0 1.933 1.933h3.467a1.933 1.933 0 0 0 1.933-1.933v-2.6Zm-5.2 2.4v-2.2h3.067v2.2h-3.067ZM21.065 37.199a1.933 1.933 0 0 0-1.934-1.933h-3.466a1.933 1.933 0 0 0-1.934 1.933v2.6a1.933 1.933 0 0 0 1.934 1.933h3.466a1.933 1.933 0 0 0 1.934-1.933v-2.6Zm-5.2 2.4v-2.2h3.066v2.2h-3.066ZM29.535 43.066h-3.467A1.933 1.933 0 0 0 24.135 45v2.6a1.933 1.933 0 0 0 1.933 1.934h3.467a1.933 1.933 0 0 0 1.933-1.934V45a1.933 1.933 0 0 0-1.933-1.933ZM26.268 47.4v-2.2h3.067v2.2h-3.067ZM36.467 33.934h3.467a1.934 1.934 0 0 0 1.933-1.933v-2.6a1.934 1.934 0 0 0-1.933-1.934h-3.467a1.933 1.933 0 0 0-1.933 1.934V32a1.934 1.934 0 0 0 1.933 1.933Zm.2-4.333h3.067v2.2h-3.067v-2.2ZM34.534 39.799a1.934 1.934 0 0 0 1.933 1.933 1.067 1.067 0 0 0 .2-2.114v-2.219h3.267a1.066 1.066 0 1 0 0-2.133h-3.467a1.933 1.933 0 0 0-1.933 1.933v2.6ZM19.131 43.066h-3.466A1.933 1.933 0 0 0 13.73 45v2.6a1.933 1.933 0 0 0 1.934 1.934h3.466a1.933 1.933 0 0 0 1.934-1.934V45a1.933 1.933 0 0 0-1.934-1.933ZM15.865 47.4v-2.2h3.066v2.2h-3.066Z" fill="#1C2D5A" stroke="#1C2D5A" stroke-width=".4"/><path d="M47.735 35.266A11.467 11.467 0 1 0 59.2 46.732a11.48 11.48 0 0 0-11.466-11.466Zm0 20.8a9.333 9.333 0 1 1 9.333-9.334 9.344 9.344 0 0 1-9.334 9.334Z" fill="#1C2D5A" stroke="#1C2D5A" stroke-width=".4"/><path d="m52.6 42.957-.002.002-6.6 6.6-2.922-2.923-.002-.003a1.067 1.067 0 0 0-1.508 1.509l.002.002 3.676 3.677a1.067 1.067 0 0 0 1.509 0l7.353-7.353.003-.003a1.066 1.066 0 0 0-1.509-1.508Z" fill="#1C2D5A" stroke="#1C2D5A" stroke-width=".4"/></svg>
